X: 40592
T: Tomorrow Morning
R: hornpipe
M: 4/4
K: Dmajor
|:fe|dAFA dafd|ecAc egfe|(3fga fd Bged|(3cec A^G Agfe|
dAFA dafd|ecAc egfe|(3fga fd gecd|eddc d2:|
|:(3efg|afdf a2 gf|gece g2 fe|(3efg fd Bged|
[1 (3cec A^G Aefg|afdf a2 gf|gece g2 fe|(3fga fd Bgec|d2 dc d2:|
[2 (3cec A^G Agfe|dAFA dafd|ecAc egfe|(3fga fd gecd|eddc d2||

